packages/core/src/svgs/rxd.svg

<svg width="24" height="24" viewBox="0 0 24 24" fill="none" xmlns="http://www.w3.org/2000/svg">
<g clip-path="url(#clip0_31_18232)">
<path d="M0 0H24V24H0V0Z" fill="#163563"/>
<path d="M16.6072 17.0785C17.3051 16.4417 17.8639 15.6675 18.2484 14.8045C18.633 13.9415 18.8351 13.0084 18.842 12.0636C18.8489 11.1189 18.6605 10.1829 18.2886 9.31437C17.9168 8.44586 17.3694 7.66356 16.681 7.01655C15.9925 6.36954 15.1778 5.87178 14.2879 5.5545C13.3979 5.23721 12.4521 5.10725 11.5096 5.17275C10.5671 5.23826 9.64827 5.49782 8.81081 5.93517C7.97335 6.37251 7.2353 6.97819 6.64296 7.71422H5.14296L7.49154 9.90851C7.74868 10.1528 8.09153 10.2856 8.44725 10.2856H12.5787C13.2044 10.2856 13.7144 10.7314 13.7144 11.3571C13.7144 11.9828 13.0758 12.4285 12.4501 12.4285H12.0001L14.1387 14.5714C15.5572 14.5714 16.7144 13.2856 16.7144 11.3571V11.2971C16.7144 10.3476 16.3375 9.43692 15.6665 8.76513C14.9955 8.09333 14.0853 7.71535 13.1358 7.71422H7.09296C7.67476 7.04227 8.38791 6.49649 9.18853 6.11046C9.98915 5.72443 10.8603 5.50633 11.7484 5.46957C12.6364 5.43281 13.5226 5.57818 14.3524 5.89672C15.1822 6.21526 15.938 6.70024 16.5733 7.32181C17.2087 7.94338 17.7101 8.6884 18.0467 9.511C18.3834 10.3336 18.5481 11.2164 18.5308 12.1051C18.5135 12.9937 18.3146 13.8694 17.9462 14.6783C17.5778 15.4872 17.0477 16.2121 16.3887 16.8085L16.603 17.0785H16.6072ZM7.11439 12.6856L12.7715 18.4714C11.6235 18.6083 10.4597 18.4372 9.39958 17.9757C8.33951 17.5141 7.42136 16.7788 6.73943 15.8451C6.0575 14.9114 5.63635 13.8131 5.51922 12.6628C5.4021 11.5126 5.59322 10.3519 6.07296 9.29993L5.82868 8.99993C5.28012 10.1277 5.05137 11.3844 5.16731 12.6332C5.28325 13.8819 5.73945 15.075 6.48626 16.0825C7.23308 17.0901 8.24191 17.8735 9.403 18.3476C10.5641 18.8217 11.8329 18.9682 13.0715 18.7714L13.1572 18.8528H17.5715L9.98582 11.1428H7.75725C6.96439 11.1428 6.56582 12.1114 7.12296 12.6814L7.11439 12.6856Z" fill="url(#paint0_linear_31_18232)"/>
</g>
<defs>
<linearGradient id="paint0_linear_31_18232" x1="12.0001" y1="5.14279" x2="12.0001" y2="18.8571" gradientUnits="userSpaceOnUse">
<stop stop-color="#4D8FB2"/>
<stop offset="0.36" stop-color="#35C6F3"/>
<stop offset="0.71" stop-color="#FFF4C4"/>
</linearGradient>
<clipPath id="clip0_31_18232">
<rect width="24" height="24" fill="white"/>
</clipPath>
</defs>
</svg>

<svg xmlns="http://www.w3.org/2000/svg" width="24" height="24" fill="none" viewBox="0 0 24 24"><g clip-path="url(#a)"><path fill="#163563" d="M0 0h24v24H0z"/><path fill="url(#b)" d="M16.607 17.079a6.855 6.855 0 0 0 .074-10.062 6.857 6.857 0 0 0-10.038.697h-1.5L7.492 9.91c.257.244.6.377.955.377h4.132c.625 0 1.135.445 1.135 1.071s-.638 1.072-1.264 1.072H12l2.139 2.142c1.418 0 2.575-1.285 2.575-3.214v-.06a3.583 3.583 0 0 0-3.578-3.583H7.093a6.514 6.514 0 1 1 9.296 9.094l.214.27zm-9.493-4.393 5.658 5.785A6.515 6.515 0 0 1 6.073 9.3L5.829 9a6.857 6.857 0 0 0 7.243 9.771l.085.082h4.415l-7.586-7.71H7.757c-.793 0-1.191.968-.634 1.538z"/></g><defs><linearGradient id="b" x1="12" x2="12" y1="5.143" y2="18.857" gradientUnits="userSpaceOnUse"><stop stop-color="#4D8FB2"/><stop offset=".36" stop-color="#35C6F3"/><stop offset=".71" stop-color="#FFF4C4"/></linearGradient><clipPath id="a"><path fill="#fff" d="M0 0h24v24H0z"/></clipPath></defs></svg>
